Assets/images/footer/logo_footer.svg

<?xml version="1.0" encoding="UTF-8" standalone="no"?>
<svg
   version="1.1"
   width="70"
   height="66"
   style="clip-rule:evenodd;fill-rule:evenodd;image-rendering:optimizeQuality;shape-rendering:geometricPrecision;text-rendering:geometricPrecision"
   id="svg9"
   xmlns="http://www.w3.org/2000/svg"
   xmlns:svg="http://www.w3.org/2000/svg">
  <defs
     id="defs9" />
  <g
     id="g1"
     transform="matrix(0.36649215,0,0,0.39759036,0.18324454,0.1987949)">
    <path
       style="opacity:0.882"
       fill="#fdfdfd"
       d="m 69.5,-0.5 c 6.3333,0 12.6667,0 19,0 5.5598,1.268757 10.8931,3.43542 16,6.5 5.357,6.3548 11.023,12.3548 17,18 8.199,2.8355 16.366,5.6688 24.5,8.5 1.942,10.4911 0.109,20.3244 -5.5,29.5 3.476,5.05 3.81,10.3833 1,16 3.45,5.6309 5.117,11.7975 5,18.5 -0.276,5.956 -1.443,11.623 -3.5,17 4.899,4.199 10.066,8.032 15.5,11.5 2.872,2.537 5.372,5.37 7.5,8.5 0.79,-5.789 4.124,-8.789 10,-9 7.781,0.627 12.615,4.627 14.5,12 0,4.333 0,8.667 0,13 -3.552,9.888 -10.552,15.221 -21,16 -13.333,0 -26.667,0 -40,0 -2.453,-2.803 -2.62,-5.803 -0.5,-9 1.757,-0.619 2.924,-1.786 3.5,-3.5 -2.299,-8.904 0.701,-15.404 9,-19.5 0.586,0.209 1.086,0.543 1.5,1 0.667,2 0.667,4 0,6 -4.977,9.362 -2.144,13.862 8.5,13.5 6.684,-5.028 8.184,-11.195 4.5,-18.5 -5.041,-5.098 -10.541,-9.598 -16.5,-13.5 -6.4,-6.545 -6.567,-13.379 -0.5,-20.5 0.667,-3 0.667,-6 0,-9 -2.667,-4 -5.333,-8 -8,-12 -1.388,1.0536 -2.888,1.2203 -4.5,0.5 -9.802,-7.2495 -19.469,-7.2495 -29,0 -0.948,0.4828 -1.948,0.6495 -3,0.5 -0.1519,-4.3829 1.5148,-7.8829 5,-10.5 -2.4112,-1.9555 -4.9112,-3.7888 -7.5,-5.5 -0.5726,4.186 -0.406,8.3527 0.5,12.5 -1.3377,6.0097 -2.671,12.0097 -4,18 1.9033,12.901 9.4033,20.068 22.5,21.5 3.985,-0.454 7.818,-1.454 11.5,-3 3.631,1.261 3.964,3.261 1,6 -4.917,1.939 -9.75,3.939 -14.5,6 -0.667,2.333 -0.667,4.667 0,7 2.333,6.333 4.667,12.667 7,19 1.158,4.807 0.324,9.14 -2.5,13 -3,0 -6,0 -9,0 -1.943,-0.791 -2.943,-2.291 -3,-4.5 1.667,-3 3.333,-6 5,-9 -1.832,-6.164 -3.666,-12.331 -5.5,-18.5 -0.741,-3.062 -0.575,-6.062 0.5,-9 C 84.0904,118.507 77.9238,106.507 83,88.5 84.244,85.4358 85.0773,82.2691 85.5,79 84.8473,73.5153 84.3473,68.0153 84,62.5 c -0.3515,4.0214 -2.5182,6.5214 -6.5,7.5 -3.9908,0.6417 -7.9908,1.1417 -12,1.5 -0.0359,4.4788 -0.8693,8.8121 -2.5,13 -5.6667,10 -11.3333,20 -17,30 -8.0043,20.328 -1.5043,32.995 19.5,38 18.0025,-3.179 24.0025,-13.346 18,-30.5 -0.0633,-2.942 1.27,-3.942 4,-3 6.6835,8.084 8.5168,17.25 5.5,27.5 -0.9143,2.164 -2.081,4.164 -3.5,6 4.6238,2.123 7.6238,5.623 9,10.5 -0.8805,0.708 -1.5472,1.542 -2,2.5 -23,0 -46,0 -69,0 -14.0197,-0.009 -23.35303,-6.676 -28,-20 0,-5 0,-10 0,-15 4.01063,-11.839 12.0106,-16.005 24,-12.5 3.6265,2.251 4.7931,5.418 3.5,9.5 -3.4285,1.513 -6.4285,0.847 -9,-2 -8.19556,5.154 -9.52889,11.821 -4,20 6.7573,6.648 14.5907,8.482 23.5,5.5 -2.7308,-2.626 -4.5642,-5.793 -5.5,-9.5 -2.1928,-12.458 -0.1928,-24.125 6,-35 5.6667,-8.3333 11.3333,-16.6667 17,-25 C 57.9414,77.3199 58.108,73.1532 55.5,69 33.7576,59.3871 29.2576,44.2205 42,23.5 48.9155,12.7401 58.0822,4.74014 69.5,-0.5 Z m 3,9 c 9.9833,-1.297 19.3167,0.53633 28,5.5 2.9,2.3968 5.233,5.2302 7,8.5 -0.333,0.3333 -0.667,0.6667 -1,1 -5.967,-4.7848 -10.3004,-3.6182 -13,3.5 1.4353,6.0513 5.1019,7.8846 11,5.5 1.694,-2.0543 2.861,-4.3877 3.5,-7 7.37,5.2385 15.536,8.7385 24.5,10.5 -4.615,1.077 -6.115,3.9103 -4.5,8.5 1.708,2.0435 3.708,3.7101 6,5 0.857,3.0505 0.19,5.7172 -2,8 -7.452,5.039 -15.619,7.8724 -24.5,8.5 -5.137,-6.5685 -11.8035,-9.9018 -20,-10 -1.2014,0.9025 -2.0348,2.0692 -2.5,3.5 C 84.6542,47.7841 81.6542,36.7841 76,26.5 73.5202,24.9103 71.6868,25.4103 70.5,28 72.2678,34.6366 74.4344,41.1366 77,47.5 79.4166,60.4093 74.2499,64.9093 61.5,61 57.2211,59.5272 53.2211,57.5272 49.5,55 44.5212,49.9669 43.3546,44.1336 46,37.5 52.2598,25.4101 61.0931,15.7434 72.5,8.5 Z m 57,62 c 1.333,0 2.667,0 4,0 -0.221,2.8919 -1.054,5.5585 -2.5,8 -1.167,-2.5 -3,-4.3333 -5.5,-5.5 1.358,-0.9344 2.692,-1.7677 4,-2.5 z m 44,63 c 2.222,-0.322 4.056,0.345 5.5,2 2.866,10.256 -0.968,16.589 -11.5,19 -0.333,-0.333 -0.667,-0.667 -1,-1 2.348,-6.03 2.348,-12.03 0,-18 1.843,-0.255 3.843,-0.422 6,-0.5 0.556,-0.383 0.889,-0.883 1,-1.5 z"
       id="path1" />
  </g>
  <g
     id="g2"
     transform="matrix(0.36649215,0,0,0.39759036,0.18324454,0.1987949)">
    <path
       style="opacity:1"
       fill="#373737"
       d="m 99.5,25.5 c 1.965,0.4483 2.298,1.4483 1,3 -0.8857,-0.825 -1.219,-1.825 -1,-3 z"
       id="path2" />
  </g>
  <g
     id="g3"
     transform="matrix(0.36649215,0,0,0.39759036,0.18324454,0.1987949)">
    <path
       style="opacity:0.012"
       fill="#fefffe"
       d="m 96.5,91.5 c -0.7389,0.131 -1.4056,-0.0357 -2,-0.5 0.9368,-0.6917 1.6034,-0.525 2,0.5 z"
       id="path3" />
  </g>
  <g
     id="g4"
     transform="matrix(0.36649215,0,0,0.39759036,0.18324454,0.1987949)">
    <path
       style="opacity:0.763"
       fill="#fcfcfc"
       d="m 96.5,91.5 c 5.521,-1.4302 8.854,0.5698 10,6 -1.285,2.521 -1.952,5.187 -2,8 -0.667,0 -1,0.333 -1,1 -0.661,-1.218 -1.328,-2.551 -2,-4 -2.3615,1.276 -4.5281,0.942 -6.5,-1 -0.963,-3.6487 -0.463,-6.982 1.5,-10 z"
       id="path4" />
  </g>
  <g
     id="g5"
     transform="matrix(0.36649215,0,0,0.39759036,0.18324454,0.1987949)">
    <path
       style="opacity:0.815"
       fill="#fdfdfd"
       d="m 124.5,102.5 c -2.863,3.271 -6.197,3.771 -10,1.5 -3.776,-8.443 -1.109,-11.7764 8,-10 1.679,2.5645 2.346,5.3979 2,8.5 z"
       id="path5" />
  </g>
  <g
     id="g6"
     transform="matrix(0.36649215,0,0,0.39759036,0.18324454,0.1987949)">
    <path
       style="opacity:0.023"
       fill="#fefffe"
       d="m 125.5,98.5 c 1.832,0.6405 2.165,1.64 1,3 -0.886,-0.825 -1.219,-1.825 -1,-3 z"
       id="path6" />
  </g>
  <g
     id="g7"
     transform="matrix(0.36649215,0,0,0.39759036,0.18324454,0.1987949)">
    <path
       style="opacity:1"
       fill="#757575"
       d="m 117.5,98.5 c 1.837,0.1395 2.17,0.8061 1,2 -0.798,-0.457 -1.131,-1.1236 -1,-2 z"
       id="path7" />
  </g>
  <g
     id="g8"
     transform="matrix(0.36649215,0,0,0.39759036,0.18324454,0.1987949)">
    <path
       style="opacity:0.00499998"
       fill="#fefffe"
       d="m 124.5,102.5 c 2.501,0.011 2.668,0.678 0.5,2 -0.464,-0.594 -0.631,-1.261 -0.5,-2 z"
       id="path8" />
  </g>
  <g
     id="g9"
     transform="matrix(0.36649215,0,0,0.39759036,0.18324454,0.1987949)">
    <path
       style="opacity:0.795"
       fill="#fdfdfd"
       d="m 104.5,105.5 c 3.045,0.008 6.045,0.341 9,1 0.162,2.027 -0.005,4.027 -0.5,6 -6.369,2.765 -9.536,0.765 -9.5,-6 0.667,0 1,-0.333 1,-1 z"
       id="path9" />
  </g>
</svg>

<?xml version="1.0" encoding="UTF-8"?>
<!DOCTYPE svg PUBLIC "-//W3C//DTD SVG 1.1//EN" "http://www.w3.org/Graphics/SVG/1.1/DTD/svg11.dtd">
<svg xmlns="http://www.w3.org/2000/svg" version="1.1" width="191px" height="166px" style="shape-rendering:geometricPrecision; text-rendering:geometricPrecision; image-rendering:optimizeQuality; fill-rule:evenodd; clip-rule:evenodd" xmlns:xlink="http://www.w3.org/1999/xlink">
<g><path style="opacity:0.882" fill="#fdfdfd" d="M 69.5,-0.5 C 75.8333,-0.5 82.1667,-0.5 88.5,-0.5C 94.0598,0.768757 99.3931,2.93542 104.5,6C 109.857,12.3548 115.523,18.3548 121.5,24C 129.699,26.8355 137.866,29.6688 146,32.5C 147.942,42.9911 146.109,52.8244 140.5,62C 143.976,67.05 144.31,72.3833 141.5,78C 144.95,83.6309 146.617,89.7975 146.5,96.5C 146.224,102.456 145.057,108.123 143,113.5C 147.899,117.699 153.066,121.532 158.5,125C 161.372,127.537 163.872,130.37 166,133.5C 166.79,127.711 170.124,124.711 176,124.5C 183.781,125.127 188.615,129.127 190.5,136.5C 190.5,140.833 190.5,145.167 190.5,149.5C 186.948,159.388 179.948,164.721 169.5,165.5C 156.167,165.5 142.833,165.5 129.5,165.5C 127.047,162.697 126.88,159.697 129,156.5C 130.757,155.881 131.924,154.714 132.5,153C 130.201,144.096 133.201,137.596 141.5,133.5C 142.086,133.709 142.586,134.043 143,134.5C 143.667,136.5 143.667,138.5 143,140.5C 138.023,149.862 140.856,154.362 151.5,154C 158.184,148.972 159.684,142.805 156,135.5C 150.959,130.402 145.459,125.902 139.5,122C 133.1,115.455 132.933,108.621 139,101.5C 139.667,98.5 139.667,95.5 139,92.5C 136.333,88.5 133.667,84.5 131,80.5C 129.612,81.5536 128.112,81.7203 126.5,81C 116.698,73.7505 107.031,73.7505 97.5,81C 96.552,81.4828 95.552,81.6495 94.5,81.5C 94.3481,77.1171 96.0148,73.6171 99.5,71C 97.0888,69.0445 94.5888,67.2112 92,65.5C 91.4274,69.686 91.594,73.8527 92.5,78C 91.1623,84.0097 89.829,90.0097 88.5,96C 90.4033,108.901 97.9033,116.068 111,117.5C 114.985,117.046 118.818,116.046 122.5,114.5C 126.131,115.761 126.464,117.761 123.5,120.5C 118.583,122.439 113.75,124.439 109,126.5C 108.333,128.833 108.333,131.167 109,133.5C 111.333,139.833 113.667,146.167 116,152.5C 117.158,157.307 116.324,161.64 113.5,165.5C 110.5,165.5 107.5,165.5 104.5,165.5C 102.557,164.709 101.557,163.209 101.5,161C 103.167,158 104.833,155 106.5,152C 104.668,145.836 102.834,139.669 101,133.5C 100.259,130.438 100.425,127.438 101.5,124.5C 84.0904,118.507 77.9238,106.507 83,88.5C 84.244,85.4358 85.0773,82.2691 85.5,79C 84.8473,73.5153 84.3473,68.0153 84,62.5C 83.6485,66.5214 81.4818,69.0214 77.5,70C 73.5092,70.6417 69.5092,71.1417 65.5,71.5C 65.4641,75.9788 64.6307,80.3121 63,84.5C 57.3333,94.5 51.6667,104.5 46,114.5C 37.9957,134.828 44.4957,147.495 65.5,152.5C 83.5025,149.321 89.5025,139.154 83.5,122C 83.4367,119.058 84.77,118.058 87.5,119C 94.1835,127.084 96.0168,136.25 93,146.5C 92.0857,148.664 90.919,150.664 89.5,152.5C 94.1238,154.623 97.1238,158.123 98.5,163C 97.6195,163.708 96.9528,164.542 96.5,165.5C 73.5,165.5 50.5,165.5 27.5,165.5C 13.4803,165.491 4.14697,158.824 -0.5,145.5C -0.5,140.5 -0.5,135.5 -0.5,130.5C 3.51063,118.661 11.5106,114.495 23.5,118C 27.1265,120.251 28.2931,123.418 27,127.5C 23.5715,129.013 20.5715,128.347 18,125.5C 9.80444,130.654 8.47111,137.321 14,145.5C 20.7573,152.148 28.5907,153.982 37.5,151C 34.7692,148.374 32.9358,145.207 32,141.5C 29.8072,129.042 31.8072,117.375 38,106.5C 43.6667,98.1667 49.3333,89.8333 55,81.5C 57.9414,77.3199 58.108,73.1532 55.5,69C 33.7576,59.3871 29.2576,44.2205 42,23.5C 48.9155,12.7401 58.0822,4.74014 69.5,-0.5 Z M 72.5,8.5 C 82.4833,7.203 91.8167,9.03633 100.5,14C 103.4,16.3968 105.733,19.2302 107.5,22.5C 107.167,22.8333 106.833,23.1667 106.5,23.5C 100.533,18.7152 96.1996,19.8818 93.5,27C 94.9353,33.0513 98.6019,34.8846 104.5,32.5C 106.194,30.4457 107.361,28.1123 108,25.5C 115.37,30.7385 123.536,34.2385 132.5,36C 127.885,37.077 126.385,39.9103 128,44.5C 129.708,46.5435 131.708,48.2101 134,49.5C 134.857,52.5505 134.19,55.2172 132,57.5C 124.548,62.539 116.381,65.3724 107.5,66C 102.363,59.4315 95.6965,56.0982 87.5,56C 86.2986,56.9025 85.4652,58.0692 85,59.5C 84.6542,47.7841 81.6542,36.7841 76,26.5C 73.5202,24.9103 71.6868,25.4103 70.5,28C 72.2678,34.6366 74.4344,41.1366 77,47.5C 79.4166,60.4093 74.2499,64.9093 61.5,61C 57.2211,59.5272 53.2211,57.5272 49.5,55C 44.5212,49.9669 43.3546,44.1336 46,37.5C 52.2598,25.4101 61.0931,15.7434 72.5,8.5 Z M 129.5,70.5 C 130.833,70.5 132.167,70.5 133.5,70.5C 133.279,73.3919 132.446,76.0585 131,78.5C 129.833,76 128,74.1667 125.5,73C 126.858,72.0656 128.192,71.2323 129.5,70.5 Z M 173.5,133.5 C 175.722,133.178 177.556,133.845 179,135.5C 181.866,145.756 178.032,152.089 167.5,154.5C 167.167,154.167 166.833,153.833 166.5,153.5C 168.848,147.47 168.848,141.47 166.5,135.5C 168.343,135.245 170.343,135.078 172.5,135C 173.056,134.617 173.389,134.117 173.5,133.5 Z"/></g>
<g><path style="opacity:1" fill="#373737" d="M 99.5,25.5 C 101.465,25.9483 101.798,26.9483 100.5,28.5C 99.6143,27.675 99.281,26.675 99.5,25.5 Z"/></g>
<g><path style="opacity:0.012" fill="#fefffe" d="M 96.5,91.5 C 95.7611,91.631 95.0944,91.4643 94.5,91C 95.4368,90.3083 96.1034,90.475 96.5,91.5 Z"/></g>
<g><path style="opacity:0.763" fill="#fcfcfc" d="M 96.5,91.5 C 102.021,90.0698 105.354,92.0698 106.5,97.5C 105.215,100.021 104.548,102.687 104.5,105.5C 103.833,105.5 103.5,105.833 103.5,106.5C 102.839,105.282 102.172,103.949 101.5,102.5C 99.1385,103.776 96.9719,103.442 95,101.5C 94.037,97.8513 94.537,94.518 96.5,91.5 Z"/></g>
<g><path style="opacity:0.815" fill="#fdfdfd" d="M 124.5,102.5 C 121.637,105.771 118.303,106.271 114.5,104C 110.724,95.557 113.391,92.2236 122.5,94C 124.179,96.5645 124.846,99.3979 124.5,102.5 Z"/></g>
<g><path style="opacity:0.023" fill="#fefffe" d="M 125.5,98.5 C 127.332,99.1405 127.665,100.14 126.5,101.5C 125.614,100.675 125.281,99.675 125.5,98.5 Z"/></g>
<g><path style="opacity:1" fill="#757575" d="M 117.5,98.5 C 119.337,98.6395 119.67,99.3061 118.5,100.5C 117.702,100.043 117.369,99.3764 117.5,98.5 Z"/></g>
<g><path style="opacity:0.005" fill="#fefffe" d="M 124.5,102.5 C 127.001,102.511 127.168,103.178 125,104.5C 124.536,103.906 124.369,103.239 124.5,102.5 Z"/></g>
<g><path style="opacity:0.795" fill="#fdfdfd" d="M 104.5,105.5 C 107.545,105.508 110.545,105.841 113.5,106.5C 113.662,108.527 113.495,110.527 113,112.5C 106.631,115.265 103.464,113.265 103.5,106.5C 104.167,106.5 104.5,106.167 104.5,105.5 Z"/></g>
</svg>
